X:112
T:Din Tarrant's
T:Jim Keefe's
R:polka
Z:id:hn-polka-112
M:2/4
L:1/8
K:G
G>G GA|B2 BA|GB dB|AG ED|G>G GA|B2 Bd|e/f/g fg|1 BG GD:|2 BG G2||
|:Bd de/f/|gf ed|Bd de/f/|gB A2|Bd de/f/|gf ed|B/c/d Bd|1 BG G2:|2 BG GD||
P:variation of 1st part
|:G2 G>A|BA Bd|GB dB|AG ED|G2 GA|BA Bd|e/f/g fg|BG G2:|

